X:104
T:Prince Rupert's March
M:C|
L:1/4
K:DDor
L:1/4
d | d A d e | f>g f f | e d d ^c | d3 :: d | e>d e/f/ g | c>d c c |
f f g/a/g/a/ | f3 f | e>d e/f/ g | c>d c f | e d d ^c | d3 :|
%
